src/img/logo/icon-badge-3.svg

<svg xmlns="http://www.w3.org/2000/svg" viewBox="0 0 32 32"><defs><style>.cls-1{fill:#e10600;}.cls-2{fill:#fff;}.cls-3{fill:none;}</style></defs><g id="Layer_2" data-name="Layer 2"><g id="Layer_1-2" data-name="Layer 1"><g id="Logo-badge-_3" data-name="Logo-badge-#3"><path class="cls-1" d="M31,13.85,18,1.73a3,3,0,0,0-4.05,0L5.84,9.36a7.2,7.2,0,0,1,4.42,4.78h11a1,1,0,0,1,1,1v1.66a1,1,0,0,1-1,1H20v2.35a1,1,0,0,1-1,1H16.19a1,1,0,0,1-1-1V17.83H10.29a7.06,7.06,0,0,1-4.45,4.81L14,30.27a3,3,0,0,0,4.05,0L31,18.15A3,3,0,0,0,31,13.85Z"/><path class="cls-1" d="M3.45,12.65A3.62,3.62,0,0,0,1.93,13a3.32,3.32,0,0,0-.1,5.89,3.26,3.26,0,0,0,1.59.4A3.32,3.32,0,0,0,6.75,16,3.27,3.27,0,0,0,3.45,12.65Z"/><circle cx="23.36" cy="9.49" r="8.55"/><path class="cls-2" d="M26.11,6.78a2,2,0,0,1-.48,1.36,2.73,2.73,0,0,1-1.4.82V9q2.13.27,2.13,2a2.16,2.16,0,0,1-.94,1.87,4.35,4.35,0,0,1-2.61.69,8.52,8.52,0,0,1-1.28-.1,7.43,7.43,0,0,1-1.26-.36V11.19a4.52,4.52,0,0,0,1.14.43,4.66,4.66,0,0,0,1.07.13,2.2,2.2,0,0,0,1.1-.21.84.84,0,0,0,.17-1.2,1.13,1.13,0,0,0-.58-.29,4.91,4.91,0,0,0-1.05-.1h-.53V8.22h.54c1.17,0,1.75-.3,1.75-.89a.55.55,0,0,0-.26-.51,1.35,1.35,0,0,0-.69-.16,3.13,3.13,0,0,0-1.69.55l-1-1.54A4.59,4.59,0,0,1,21.66,5a5.82,5.82,0,0,1,1.63-.2,3.56,3.56,0,0,1,2.07.52A1.67,1.67,0,0,1,26.11,6.78Z"/><rect class="cls-3" width="32" height="32"/></g></g></g></svg>

<?xml version="1.0" encoding="UTF-8" standalone="no"?>
<svg
   viewBox="0 0 32 32"
   version="1.1"
   id="svg932"
   sodipodi:docname="icon-badge-3.svg"
   inkscape:version="1.2.2 (732a01da63, 2022-12-09)"
   inkscape:export-filename="..\icons\icon-32-badge-3.png"
   inkscape:export-xdpi="96"
   inkscape:export-ydpi="96"
   xmlns:inkscape="http://www.inkscape.org/namespaces/inkscape"
   xmlns:sodipodi="http://sodipodi.sourceforge.net/DTD/sodipodi-0.dtd"
   xmlns="http://www.w3.org/2000/svg"
   xmlns:svg="http://www.w3.org/2000/svg">
  <sodipodi:namedview
     id="namedview934"
     pagecolor="#ffffff"
     bordercolor="#000000"
     borderopacity="0.25"
     inkscape:showpageshadow="2"
     inkscape:pageopacity="0.0"
     inkscape:pagecheckerboard="0"
     inkscape:deskcolor="#d1d1d1"
     showgrid="false"
     inkscape:zoom="25.90625"
     inkscape:cx="12.178528"
     inkscape:cy="16.0193"
     inkscape:window-width="1920"
     inkscape:window-height="1009"
     inkscape:window-x="-8"
     inkscape:window-y="-2"
     inkscape:window-maximized="1"
     inkscape:current-layer="svg932" />
  <defs
     id="defs917">
    <style
       id="style915">.cls-1{fill:#e10600;}.cls-2{fill:#fff;}.cls-3{fill:none;}</style>
  </defs>
  <path
     class="cls-1"
     d="M 31,13.85 18,1.73 a 3,3 0 0 0 -4.05,0 L 5.84,9.36 a 7.2,7.2 0 0 1 4.42,4.78 h 11 a 1,1 0 0 1 1,1 v 1.66 a 1,1 0 0 1 -1,1 H 20 v 2.35 a 1,1 0 0 1 -1,1 h -2.81 a 1,1 0 0 1 -1,-1 v -2.32 h -4.9 A 7.06,7.06 0 0 1 5.84,22.64 L 14,30.27 a 3,3 0 0 0 4.05,0 L 31,18.15 a 3,3 0 0 0 0,-4.3 z"
     id="path919"
     style="fill:#ef8600;fill-opacity:1" />
  <path
     class="cls-1"
     d="M 3.45,12.65 A 3.62,3.62 0 0 0 1.93,13 3.32,3.32 0 0 0 1.83,18.89 3.26,3.26 0 0 0 3.42,19.29 3.32,3.32 0 0 0 6.75,16 3.27,3.27 0 0 0 3.45,12.65 Z"
     id="path921"
     style="fill:#ef8600;fill-opacity:1" />
  <circle
     cx="23.360001"
     cy="9.4899998"
     r="8.5500002"
     id="circle923" />
  <path
     class="cls-2"
     d="m 26.11,6.78 a 2,2 0 0 1 -0.48,1.36 2.73,2.73 0 0 1 -1.4,0.82 V 9 q 2.13,0.27 2.13,2 a 2.16,2.16 0 0 1 -0.94,1.87 4.35,4.35 0 0 1 -2.61,0.69 8.52,8.52 0 0 1 -1.28,-0.1 7.43,7.43 0 0 1 -1.26,-0.36 v -1.91 a 4.52,4.52 0 0 0 1.14,0.43 4.66,4.66 0 0 0 1.07,0.13 2.2,2.2 0 0 0 1.1,-0.21 0.84,0.84 0 0 0 0.17,-1.2 1.13,1.13 0 0 0 -0.58,-0.29 4.91,4.91 0 0 0 -1.05,-0.1 H 21.59 V 8.22 h 0.54 c 1.17,0 1.75,-0.3 1.75,-0.89 A 0.55,0.55 0 0 0 23.62,6.82 1.35,1.35 0 0 0 22.93,6.66 3.13,3.13 0 0 0 21.24,7.21 l -1,-1.54 A 4.59,4.59 0 0 1 21.66,5 a 5.82,5.82 0 0 1 1.63,-0.2 3.56,3.56 0 0 1 2.07,0.52 1.67,1.67 0 0 1 0.75,1.46 z"
     id="path925" />
  <rect
     class="cls-3"
     width="32"
     height="32"
     id="rect927"
     x="0"
     y="0" />
</svg>
